X:21047 
T:DROPS OF BRANDY 
B:DMI.0448
Z:Nordberg/Black
R:slip jig
%Q:1/4=150
M:9/8
L:1/8
K:G
ded BGB BGB|ded BGB c2A|
ded BGB BGB|cBc AFA c2A|
ded BGB BGB|ded BGB cBA|
ded Bcd gdB|cBc AFA cBA||
%
GBd gdB gdB|GBd gdB c2A|
GBd gdB gdB|cBc AFA c2A|
GBd gdB gdB|GBd gdB cBA|
GBd gba gdB|cBc AFA cBA||\
"final" HG6z3|]

%%%

